src/assets/Vector (50).svg

<svg width="78" height="78" viewBox="0 0 78 78" fill="none" xmlns="http://www.w3.org/2000/svg">
<path fill-rule="evenodd" clip-rule="evenodd" d="M40.2131 3.80859V7.61719H45.469C48.3597 7.61719 50.7248 7.6376 50.7248 7.66259C50.7248 7.68757 50.8962 9.33989 51.1057 11.3345C51.3151 13.329 51.4865 15.091 51.4865 15.2501C51.4865 15.5295 51.2627 15.5391 44.7072 15.5391H37.9279V18.2812V21.0234H35.4143H32.9006V24.9082V28.793H34.2717C35.4729 28.793 35.6437 28.826 35.6507 29.0596C35.6551 29.2063 35.8136 30.79 36.0028 32.5793C36.2371 34.7955 36.2953 35.8485 36.1853 35.8827C36.0963 35.9103 35.3942 35.9583 34.6248 35.9894L33.226 36.0459L29.2023 27.8111L25.1784 19.5762H24.3902H23.6018L19.7993 27.3451L15.9968 35.114L16.9458 35.6024C17.4677 35.871 17.9331 36.094 17.9802 36.098C18.0271 36.1021 19.4668 33.2269 21.1794 29.7087C22.8919 26.1906 24.3322 23.3113 24.3799 23.3103C24.4786 23.3083 30.9204 36.458 30.9195 36.6595C30.9191 36.7319 30.3878 37.0617 29.7389 37.3925C28.837 37.8521 28.2133 38.3379 27.0929 39.4529C25.7854 40.7542 25.5439 41.0842 24.8579 42.5077C23.9605 44.3698 23.6076 45.7983 23.6076 47.5695C23.6076 48.6309 23.6727 48.973 23.9987 49.6273C24.421 50.4748 25.1652 51.2157 25.9882 51.6083C26.4648 51.8356 26.4976 51.8951 26.4076 52.375C26.2736 53.0889 26.2703 53.901 26.3989 54.5523C26.5035 55.0831 26.49 55.1038 25.9332 55.2711C25.2232 55.4842 24.2618 56.3954 23.8924 57.2051C23.4695 58.1319 23.5158 59.4745 24.0042 60.4549C24.4266 61.3024 25.0205 61.8459 25.9476 62.2333C26.4303 62.435 26.5028 62.5239 26.4135 62.8051C26.3553 62.9882 26.3107 63.6028 26.3142 64.1705L26.3207 65.2031L24.5452 65.2025C19.5775 65.2008 15.1225 63.4873 11.5027 60.186C9.99937 58.815 9.18113 58.2462 8.23995 57.9176L7.5084 57.6621L12.2065 48.0681C14.7904 42.7914 16.9045 38.422 16.9045 38.3583C16.9045 38.2034 15.0937 37.2953 14.956 37.3812C14.8966 37.4184 12.6233 42.0097 9.90461 47.5841L4.96121 57.7195L4.08356 58.0395C1.80983 58.8685 0.23185 61.0409 0.0365454 63.6111C-0.124482 65.7307 0.63419 67.3713 2.65594 69.2757C7.91424 74.2287 14.2587 77.1199 21.4529 77.8417C22.4695 77.9438 31.4096 78 46.5928 78H70.155L72.644 54.1201C74.0128 40.9863 75.1693 29.9145 75.2138 29.5166L75.2947 28.793H76.6444H77.9943V24.9082V21.0234H75.4807H72.967V18.2812V15.5391H69.6154H66.2639V16.6816V17.8242H68.4729H70.6818V19.4238V21.0234H55.4475H40.2131V19.4238V17.8242H52.0197H63.8264V16.6816V15.5391H61.465C59.6764 15.5391 59.1042 15.4929 59.1059 15.3486C59.1101 14.9874 57.7197 0.684785 57.6472 0.342773L57.5745 0H48.8938H40.2131V3.80859ZM42.4983 3.80661V5.32792L47.6399 5.36814L52.7815 5.4082L53.1079 8.53125C53.2875 10.2489 53.519 12.5283 53.6221 13.5967L53.8096 15.5391H55.3142C56.5547 15.5391 56.8186 15.4987 56.8186 15.3089C56.8186 15.1823 56.5443 12.3037 56.2092 8.91211C55.874 5.52048 55.5998 2.64195 55.5998 2.51535C55.5998 2.31349 54.7918 2.28516 49.049 2.28516H42.4983V3.80661ZM35.1858 24.9082V26.5078H55.4475H75.7092V24.9082V23.3086H55.4475H35.1858V24.9082ZM37.9279 28.931C37.9279 29.2069 38.5404 34.9764 38.6208 35.458L38.7035 35.9531H46.0608C52.9474 35.9531 53.4953 35.9728 54.6233 36.2613C58.6883 37.3009 61.7138 40.1336 63.0811 44.1797C63.5078 45.4428 63.572 45.8402 63.584 47.3027C63.5971 48.8923 63.5744 49.021 63.1408 49.8047C62.6859 50.627 61.8305 51.3947 61.061 51.671C60.6794 51.8082 60.6657 51.8473 60.8129 52.3779C60.8986 52.6867 60.9323 53.425 60.8878 54.0184L60.8069 55.0971L61.3439 55.2913C62.1434 55.5805 62.9847 56.421 63.3693 57.3151C63.9845 58.745 63.5709 60.48 62.3619 61.5415C62.0491 61.8161 61.5872 62.1273 61.3353 62.2333L60.877 62.426L60.8663 64.0263L60.8557 65.6265L61.3683 65.8119C62.1462 66.0931 62.9891 66.9429 63.3712 67.8309C63.6666 68.5178 63.7019 68.7971 63.6256 69.8482C63.487 71.7582 62.8553 73.333 61.6198 74.8497L60.9151 75.7148H64.4943H68.0733L68.1619 75.0674C68.2702 74.2769 72.967 29.2171 72.967 28.9692C72.967 28.8368 68.6118 28.793 55.4475 28.793C45.0815 28.793 37.9279 28.8493 37.9279 28.931ZM23.3029 35.877V37.0195H24.4455H25.5881V35.877V34.7344H24.4455H23.3029V35.877ZM33.0529 38.4747C29.7832 39.34 26.9502 42.1988 26.1227 45.4685C25.8101 46.7031 25.8206 48.3457 26.1438 48.8393C26.711 49.7047 25.848 49.6641 43.6478 49.6641C58.8316 49.6641 60.0795 49.6449 60.487 49.4042C61.4177 48.8544 61.6169 47.5578 61.0885 45.4912C60.2928 42.3801 58.2082 40.0478 55.0666 38.7537L54.0002 38.3145L43.9455 38.2838C35.5585 38.2581 33.7519 38.2898 33.0529 38.4747ZM31.6818 42.5801V43.7227H32.8244H33.967V42.5801V41.4375H32.8244H31.6818V42.5801ZM36.2522 42.5734V43.7227H37.4014H38.5507L38.5059 42.6182L38.4611 41.5137L37.3567 41.4689L36.2522 41.4241V42.5734ZM18.5803 43.4941V44.6367H19.7229H20.8654V43.4941V42.3516H19.7229H18.5803V43.4941ZM16.4069 50.4316C13.0292 51.2727 11.7227 55.3384 13.9975 57.9293C14.7505 58.787 16.1381 59.4141 17.2826 59.4141C18.6915 59.4141 19.5792 59.0471 20.5745 58.0527C21.6526 56.9756 22.0039 56.0395 21.8959 54.5301C21.802 53.2181 21.2055 52.0973 20.1884 51.3216C19.1065 50.4963 17.5849 50.1382 16.4069 50.4316ZM29.2117 52.1846C28.613 52.5114 28.3781 53.3848 28.6889 54.1283C28.8324 54.472 29.0809 54.7527 29.3231 54.8447C29.542 54.928 30.8479 54.9961 32.225 54.9961H34.7287V57.3338C34.7287 59.4051 34.7604 59.7003 35.0074 59.9237C35.4417 60.3167 36.1751 60.2456 36.5457 59.7744C36.8332 59.409 36.8615 59.1688 36.8615 57.1016V54.8303L37.966 54.8751L39.0705 54.9199L39.1467 59.9978C39.2188 64.8008 39.2389 65.0873 39.5186 65.2918C39.9265 65.5898 40.4169 65.562 40.8436 65.2167L41.2033 64.9257L41.2474 59.9608L41.2915 54.9961H46.3128H51.3342V57.1845C51.3342 59.1679 51.3637 59.4106 51.65 59.7744C51.8761 60.062 52.107 60.1758 52.4643 60.1758C53.3732 60.1758 53.467 59.9075 53.467 57.3073V54.9961H55.5337C58.2139 54.9961 58.6327 54.7894 58.6418 53.4611C58.6458 52.905 58.5672 52.6893 58.2536 52.3947L57.8604 52.0254L43.7429 51.9922C31.517 51.9632 29.5698 51.9891 29.2117 52.1846ZM16.7848 52.6623C16.1995 52.7821 15.2689 53.7886 15.1481 54.4327C14.7939 56.3209 16.917 57.8167 18.5436 56.825C19.9797 55.9495 20 53.8139 18.5803 52.9663C18.14 52.7035 17.2884 52.5594 16.7848 52.6623ZM26.3615 57.6757C25.7247 58.2115 25.694 59.1737 26.2944 59.7742L26.6961 60.1758L29.6078 60.1761L32.5197 60.1764L32.4711 58.7288L32.4227 57.2812H29.6264C26.8405 57.2812 26.8285 57.2826 26.3615 57.6757ZM43.5647 58.7285V60.1758H46.4021H49.2395L49.1442 59.6997C49.0918 59.4378 49.049 58.7866 49.049 58.2524V57.2812H46.3068H43.5647V58.7285ZM55.7246 58.7288L55.676 60.1764L58.0871 60.1761L60.4983 60.1758L60.9436 59.7305C61.2732 59.4008 61.3889 59.1406 61.3889 58.7285C61.3889 58.3164 61.2732 58.0562 60.9436 57.7266L60.4983 57.2812H58.1357H55.773L55.7246 58.7288ZM5.14235 60.0641C2.98592 60.7812 1.79353 63.1858 2.51 65.3725C2.72709 66.0354 3.01685 66.4289 4.01455 67.4164C9.35008 72.6977 16.8314 75.7148 24.5919 75.7148C25.4749 75.7148 26.1975 75.6796 26.1975 75.6365C26.1975 75.5934 25.8943 75.1861 25.524 74.7312C24.7217 73.7464 24.0132 72.3037 23.7572 71.1342C23.5697 70.2777 23.6124 68.2471 23.8281 67.7549C23.9275 67.5277 23.8608 67.4883 23.3768 67.4883C22.1307 67.4883 19.4762 66.982 17.8001 66.4248C14.7036 65.3952 12.3953 64.0484 9.86287 61.7937C9.07449 61.0917 8.19989 60.3987 7.91957 60.2536C7.26876 59.9171 5.87131 59.8217 5.14235 60.0641ZM29.2186 62.6925C28.6632 62.9961 28.402 63.8119 28.6348 64.5171C28.955 65.4875 29.0483 65.5078 33.2012 65.5081L36.9377 65.5086L36.8615 64.0228L36.7854 62.5371L33.2053 62.5036C30.3074 62.4765 29.5477 62.5126 29.2186 62.6925ZM43.5647 63.2732C43.5647 63.7248 43.5211 64.4123 43.4678 64.8009L43.3709 65.5078H50.4856C57.7715 65.5078 58.0073 65.4901 58.4514 64.9117C58.7801 64.4835 58.6878 63.4399 58.2791 62.9646L57.9115 62.5371L50.7381 62.4946L43.5647 62.4523V63.2732ZM26.3436 68.2025C25.8605 68.6089 25.8574 68.6205 25.9243 69.7756C26.0413 71.7981 27.2043 73.7056 28.9607 74.7563C30.5905 75.7311 30.3452 75.7153 43.6347 75.7112C51.1936 75.7088 55.9246 75.6501 56.344 75.5534C58.6337 75.0255 60.5717 73.1517 61.1587 70.8977C61.5272 69.4832 61.469 68.7637 60.9436 68.2383L60.4983 67.793H43.6643H26.8302L26.3436 68.2025Z" fill="white"/>
</svg>

<svg xmlns="http://www.w3.org/2000/svg" width="78" height="78" fill="none" viewBox="0 0 78 78"><path fill="#fff" fill-rule="evenodd" d="M40.213 3.809v3.808h5.256c2.89 0 5.256.02 5.256.046s.171 1.677.38 3.672c.21 1.994.382 3.756.382 3.915 0 .28-.224.29-6.78.29h-6.78v5.483h-5.026v7.77h1.37c1.202 0 1.373.033 1.38.267.004.146.163 1.73.352 3.52.234 2.215.292 3.269.182 3.303-.089.027-.79.075-1.56.106l-1.399.057-4.024-8.235-4.024-8.235h-1.576l-3.803 7.77-3.802 7.768.949.488c.522.269.987.492 1.034.496s1.487-2.871 3.2-6.39c1.712-3.517 3.152-6.397 3.2-6.398.099-.002 6.54 13.148 6.54 13.35 0 .072-.532.402-1.181.733-.902.46-1.526.945-2.646 2.06-1.308 1.301-1.55 1.631-2.235 3.055-.898 1.862-1.25 3.29-1.25 5.061 0 1.062.065 1.404.39 2.058.423.848 1.167 1.589 1.99 1.981.477.228.51.287.42.767-.134.714-.138 1.526-.01 2.177.105.531.092.552-.465.72-.71.212-1.671 1.123-2.04 1.933-.424.927-.377 2.27.111 3.25.423.847 1.016 1.39 1.944 1.778.482.202.555.29.465.572-.058.183-.102.798-.099 1.366l.007 1.032h-1.776c-4.968-.002-9.423-1.716-13.042-5.017-1.504-1.371-2.322-1.94-3.263-2.268l-.732-.256 4.699-9.594c2.583-5.277 4.697-9.646 4.697-9.71 0-.155-1.81-1.063-1.948-.977-.06.037-2.333 4.629-5.051 10.203L4.96 57.72l-.877.32C1.81 58.87.232 61.042.037 63.612c-.161 2.12.597 3.76 2.619 5.665 5.258 4.953 11.603 7.844 18.797 8.566 1.017.102 9.957.158 25.14.158h23.562l2.489-23.88c1.369-13.134 2.525-24.205 2.57-24.603l.08-.724h2.7v-7.77h-5.027V15.54h-6.703v2.285h4.418v3.2H40.213v-3.2h23.613V15.54h-2.361c-1.789 0-2.36-.046-2.36-.19C59.11 14.987 57.72.685 57.648.343L57.575 0H40.214zm2.285-.002v1.52l5.142.041 5.142.04.326 3.123c.18 1.718.411 3.997.514 5.066l.188 1.942h1.504c1.24 0 1.505-.04 1.505-.23 0-.127-.275-3.005-.61-6.397s-.61-6.27-.61-6.397c0-.202-.807-.23-6.55-.23h-6.55zm-7.312 21.101v1.6h40.523v-3.2H35.186zm2.742 4.023c0 .276.612 6.045.693 6.527l.082.495h7.358c6.886 0 7.434.02 8.562.308 4.065 1.04 7.09 3.873 8.458 7.919.427 1.263.491 1.66.503 3.123.013 1.59-.01 1.718-.443 2.502-.455.822-1.31 1.59-2.08 1.866-.382.137-.395.176-.248.707.086.309.12 1.047.075 1.64l-.081 1.08.537.193c.8.29 1.64 1.13 2.025 2.024.615 1.43.202 3.165-1.007 4.227-.313.274-.775.585-1.027.691l-.458.193-.01 1.6-.011 1.6.512.186c.778.281 1.621 1.13 2.003 2.019.296.687.33.966.255 2.017-.139 1.91-.77 3.485-2.006 5.002l-.705.865h7.158l.089-.648c.108-.79 4.805-45.85 4.805-46.098 0-.132-4.355-.176-17.52-.176-10.366 0-17.52.056-17.52.138m-14.625 6.946v1.142h2.285v-2.285h-2.285zm9.75 2.598c-3.27.865-6.103 3.724-6.93 6.993-.313 1.235-.302 2.878.02 3.371.568.866-.295.825 17.505.825 15.184 0 16.432-.02 16.839-.26.93-.55 1.13-1.846.602-3.913-.796-3.11-2.88-5.443-6.022-6.737L54 38.314l-10.054-.03c-8.387-.026-10.194.006-10.893.19m-1.371 4.105v1.143h2.285v-2.285h-2.285zm4.57-.007v1.15h2.299l-.045-1.105-.045-1.104-1.104-.045-1.105-.045zm-17.672.921v1.143h2.285v-2.285H18.58zm-2.173 6.938c-3.378.84-4.684 4.906-2.41 7.497.754.858 2.141 1.485 3.286 1.485 1.409 0 2.296-.367 3.291-1.361 1.079-1.077 1.43-2.014 1.322-3.523-.094-1.312-.69-2.433-1.708-3.208-1.081-.826-2.603-1.184-3.781-.89m12.805 1.753c-.599.326-.834 1.2-.523 1.943.143.344.392.625.634.717.219.083 1.525.151 2.902.151h2.504v2.338c0 2.071.031 2.366.278 2.59.435.393 1.168.322 1.539-.15.287-.365.316-.605.316-2.672V54.83l1.104.045 1.105.045.076 5.078c.072 4.803.092 5.09.372 5.294.407.298.898.27 1.325-.075l.36-.291.043-4.965.044-4.965h10.043v2.188c0 1.984.03 2.227.316 2.59.226.288.457.402.814.402.91 0 1.003-.269 1.003-2.869v-2.31h2.067c2.68 0 3.099-.208 3.108-1.536.004-.556-.075-.772-.388-1.066l-.394-.37-14.117-.033c-12.226-.029-14.173-.003-14.531.193m-12.427.477c-.585.12-1.516 1.127-1.637 1.77-.354 1.889 1.769 3.385 3.396 2.393 1.436-.876 1.456-3.011.036-3.859-.44-.263-1.292-.407-1.795-.304m9.577 5.014c-.637.535-.668 1.498-.068 2.098l.402.402h5.824l-.049-1.447-.048-1.448h-2.797c-2.786 0-2.798.002-3.265.395m17.203 1.052v1.448h5.674l-.095-.476c-.052-.262-.095-.913-.095-1.448v-.97h-5.484zm12.16 0-.049 1.448h4.822l.446-.446c.33-.33.445-.59.445-1.001 0-.413-.116-.673-.445-1.002l-.446-.446h-4.725zM5.142 60.065c-2.156.717-3.348 3.122-2.632 5.309.217.662.507 1.056 1.505 2.043 5.335 5.282 12.816 8.299 20.577 8.299.883 0 1.606-.035 1.606-.079 0-.043-.304-.45-.674-.905-.802-.985-1.51-2.427-1.767-3.597-.187-.856-.145-2.887.071-3.38.1-.226.033-.266-.451-.266-1.246 0-3.9-.506-5.577-1.063-3.096-1.03-5.405-2.377-7.937-4.631-.789-.702-1.663-1.395-1.943-1.54-.651-.337-2.049-.432-2.778-.19m24.077 2.629c-.556.303-.817 1.119-.584 1.824.32.97.413.99 4.566.991h3.737l-.077-1.485-.076-1.486-3.58-.033c-2.898-.027-3.657.009-3.986.189m14.346.58c0 .452-.044 1.14-.097 1.528l-.097.707h7.115c7.286 0 7.521-.018 7.965-.596.33-.428.237-1.472-.172-1.947l-.368-.428-7.173-.042-7.173-.043zm-17.221 4.93c-.484.406-.487.418-.42 1.573.117 2.022 1.28 3.93 3.037 4.98 1.63.975 1.384.96 14.674.955 7.559-.002 12.29-.06 12.709-.158 2.29-.528 4.228-2.401 4.815-4.655.368-1.415.31-2.134-.215-2.66l-.446-.445H26.83z" clip-rule="evenodd"/></svg>
